X:140
T: Calendar
T: F\'eilire (An)
S: B.Breathnach: "Ceol Rince na hEireann" II/32
Z: B.Black
L: 1/8
M: 6/8
R: jig
K: D
F|: EFE EFA|BAB d2d|DED DFA|BAG FED|
EFE EFA|BAB d2e|fef d2B|BAG FED :|
e2B BAF|ABc dcd|Bee Bee|BAG FED|
e2B BAF|ABc def|edc d2B|BAG FED :|
BEE BEE|BEB d2A|BEE BEB|BAG FED|
BEB BEB|BEB d2e|fef d2B|BAG FED :|
EEE FFF|GGG F3|DFA d2A|BAG FED|
EEE FFF|GGG FFF|DFA dfe|dAG FED :|
